Assets/Logos/Samsung.svg

<svg width="165" height="24" viewBox="0 0 165 24" fill="none" xmlns="http://www.w3.org/2000/svg">
<path fill-rule="evenodd" clip-rule="evenodd" d="M90.2447 11.1445C90.2447 11.1445 88.65 10.1584 87.6639 9.77681C87.6639 9.77681 84.6115 8.36211 84.0059 7.68902C84.0059 7.68902 82.8162 6.56789 83.5128 5.26571C83.5128 5.26571 83.8044 4.41361 85.0615 4.41361C85.0615 4.41361 86.6982 4.50363 86.6982 5.84877V7.7463H92.5637L92.5534 4.95167C92.5534 4.95167 93.0045 0.375105 85.6446 0.173589C85.6446 0.173589 79.8559 -0.206945 78.1957 2.91093C78.1957 2.91093 77.5441 3.60652 77.5441 6.02881V7.77904C77.5441 7.77904 77.4776 9.79829 78.5087 11.0995C78.5087 11.0995 79.0917 11.9526 80.5279 12.8937C80.5279 12.8937 83.4443 14.4639 85.1945 15.363C85.1945 15.363 86.9611 16.3716 86.7289 17.9766C86.7289 17.9766 86.5847 19.6245 84.8784 19.557C84.8784 19.557 83.3185 19.4874 83.3185 17.8712V15.9747H77.0684V18.7295C77.0684 18.7295 76.8935 23.9975 84.9245 23.9975C84.9245 23.9975 92.5984 24.153 92.9565 18.5914V16.3481C92.9555 16.3481 93.2275 12.9397 90.2447 11.1445ZM60.2157 0.829283L58.2517 13.1371H57.7924L55.9163 0.93976H46.1188L45.6278 23.2283H51.4288L51.4983 6.43492H51.9546L55.0295 23.2252H61.1322L64.1693 6.44105H64.5734L64.7135 23.2283H70.5452L69.9171 0.829283H60.2157ZM25.6838 0.922372L21.8243 23.2027H28.0692L30.3555 5.92754H30.869L33.1542 23.2027H39.3981L35.5397 0.922372H25.6838ZM156.723 10.8376V14.1242H158.324V17.6523C158.324 19.377 156.85 19.4087 156.85 19.4087C155.058 19.4087 155.126 17.7699 155.126 17.7699V5.56645C155.126 4.30927 156.716 4.24176 156.716 4.24176C158.243 4.24176 158.253 5.74137 158.253 5.74137V7.59695H164.133C164.325 3.97478 163.603 3.09813 163.603 3.09813C162.144 -0.177273 156.626 0.00173807 156.626 0.00173807C148.147 0.00173807 149.088 6.50754 149.088 6.50754V18.307C149.271 24.4087 157.626 23.7888 157.767 23.7837C161.483 23.3725 162.605 22.191 162.605 22.191C163.639 21.4238 163.905 20.361 163.905 20.361C164.2 19.7421 164.274 17.7699 164.274 17.7699V10.8376H156.723ZM137.233 14.4639H136.977L131.01 0.835417H123.871V23.2303H129.682L129.334 9.60394H129.594L135.775 23.2303H142.697V0.833372H136.813L137.233 14.4639ZM109.688 17.6503C109.688 17.6503 109.772 19.4885 108.068 19.4885C108.068 19.4885 106.276 19.5846 106.276 17.6963L106.258 0.848715H99.8848V17.5623C99.8848 17.5623 99.2311 23.8881 108.158 23.8881C108.158 23.8881 115.916 23.9801 115.916 17.8528V0.849738H109.688V17.6503ZM13.5345 11.1445C13.5345 11.1445 11.9418 10.1584 10.9547 9.77783C10.9547 9.77783 7.90432 8.36415 7.29875 7.69004C7.29875 7.69004 6.10909 6.56687 6.80672 5.26775C6.80672 5.26775 7.09723 4.41566 8.35338 4.41566C8.35338 4.41566 9.99109 4.50465 9.99109 5.8498V7.74733H15.8586L15.8473 4.95167C15.8473 4.95167 16.2954 0.375104 8.9385 0.174611C8.9385 0.174611 8.38407 0.138806 7.57085 0.179723C7.57085 0.179723 3.11396 0.419088 1.52024 2.86388C1.51104 2.88229 1.49774 2.8956 1.48853 2.91196C1.48853 2.91196 0.837951 3.60652 0.837951 6.02983V7.78006C0.837951 7.78006 0.770437 9.79932 1.80257 11.1005C1.80257 11.1005 2.38564 11.9536 3.82182 12.8947C3.82182 12.8947 6.73716 14.4649 8.48739 15.364C8.48739 15.364 10.256 16.3706 10.0218 17.9776C10.0218 17.9776 9.87754 19.6255 8.17232 19.558C8.17232 19.558 6.61236 19.4885 6.61236 17.8722V15.9747H0.361267V18.7315C0.361267 18.7315 0.186347 23.9996 8.21733 23.9996C8.21733 23.9996 15.8893 24.155 16.2504 18.5934V16.3522C16.2504 16.3501 16.5184 12.9397 13.5345 11.1445Z" fill="#ADADAD"/>
</svg>

<svg width="165" height="24" fill="none" xmlns="http://www.w3.org/2000/svg"><path fill-rule="evenodd" clip-rule="evenodd" d="M90.245 11.145s-1.595-.987-2.581-1.368c0 0-3.052-1.415-3.658-2.088 0 0-1.19-1.121-.493-2.423 0 0 .291-.852 1.548-.852 0 0 1.637.09 1.637 1.435v1.897h5.866l-.01-2.794s.45-4.577-6.91-4.778c0 0-5.788-.38-7.448 2.737 0 0-.652.696-.652 3.118v1.75s-.066 2.02.965 3.32c0 0 .583.854 2.019 1.795 0 0 2.916 1.57 4.666 2.469 0 0 1.767 1.009 1.535 2.614 0 0-.144 1.648-1.85 1.58 0 0-1.56-.07-1.56-1.686v-1.896h-6.25v2.755s-.175 5.267 7.855 5.267c0 0 7.674.156 8.032-5.406v-2.243s.272-3.408-2.711-5.203zM60.215.829l-1.963 12.308h-.46L55.916.94H46.12l-.491 22.288h5.8l.07-16.793h.457l3.075 16.79h6.102L64.17 6.441h.404l.14 16.787h5.832L69.917.83h-9.701zM25.685.922l-3.86 22.28h6.245l2.287-17.274h.513l2.285 17.275h6.244L35.54.923h-9.856zm131.039 9.916v3.286h1.601v3.528c0 1.725-1.474 1.757-1.474 1.757-1.792 0-1.724-1.64-1.724-1.64V5.567c0-1.257 1.59-1.324 1.59-1.324 1.527 0 1.537 1.5 1.537 1.5v1.855h5.88c.192-3.622-.53-4.499-.53-4.499-1.459-3.275-6.977-3.096-6.977-3.096-8.479 0-7.538 6.506-7.538 6.506v11.799c.183 6.102 8.538 5.482 8.679 5.477 3.716-.412 4.838-1.593 4.838-1.593 1.034-.767 1.3-1.83 1.3-1.83.295-.619.369-2.591.369-2.591v-6.932h-7.551zm-19.49 3.626h-.256L131.01.835h-7.139V23.23h5.811l-.348-13.626h.26l6.181 13.626h6.922V.833h-5.884l.42 13.63zm-27.545 3.186s.084 1.838-1.62 1.838c0 0-1.792.097-1.792-1.792L106.258.85h-6.373v16.713s-.654 6.326 8.273 6.326c0 0 7.758.092 7.758-6.035V.85h-6.228v16.8zm-96.154-6.505s-1.592-.987-2.58-1.367c0 0-3.05-1.414-3.655-2.088 0 0-1.19-1.123-.492-2.422 0 0 .29-.852 1.546-.852 0 0 1.638.089 1.638 1.434v1.897h5.868l-.012-2.795S16.295.375 8.938.175c0 0-.554-.036-1.367.005 0 0-4.457.24-6.05 2.684-.01.018-.023.032-.032.048 0 0-.651.695-.651 3.118v1.75S.77 9.8 1.803 11.1c0 0 .583.854 2.019 1.795 0 0 2.915 1.57 4.665 2.469 0 0 1.769 1.007 1.535 2.614 0 0-.144 1.647-1.85 1.58 0 0-1.56-.07-1.56-1.686v-1.897H.362v2.757S.185 24 8.216 24c0 0 7.672.155 8.033-5.407v-2.24c0-.003.268-3.413-2.716-5.209z" fill="#ADADAD"/></svg>
